Newaita-dark/.DP/22/youtube-indicator-light-sync1.svg

<svg xmlns="http://www.w3.org/2000/svg" xmlns:xlink="http://www.w3.org/1999/xlink" width="22px" height="22px" viewBox="0 0 22 22" version="1.1">
<g id="surface1">
<path style=" stroke:none;fill-rule:nonzero;fill:rgb(93.333334%,93.333334%,93.333334%);fill-opacity:1;" d="M 14.472656 14.464844 C 14.347656 14.539062 14.246094 14.660156 14.207031 14.8125 C 14.199219 14.847656 14.191406 14.886719 14.1875 14.925781 C 14.015625 15.679688 14.117188 16.5 14.53125 17.222656 C 14.949219 17.945312 15.609375 18.441406 16.351562 18.671875 C 16.382812 18.6875 16.417969 18.699219 16.457031 18.710938 C 16.761719 18.792969 17.074219 18.613281 17.15625 18.308594 C 17.234375 18.003906 17.058594 17.691406 16.753906 17.613281 C 16.714844 17.601562 16.679688 17.59375 16.640625 17.59375 C 16.179688 17.441406 15.769531 17.125 15.503906 16.660156 C 15.238281 16.199219 15.167969 15.683594 15.265625 15.210938 C 15.28125 15.175781 15.296875 15.140625 15.304688 15.105469 C 15.386719 14.800781 15.207031 14.492188 14.902344 14.410156 C 14.75 14.367188 14.597656 14.394531 14.472656 14.464844 Z M 14.472656 14.464844 "/>
<path style=" stroke:none;fill-rule:nonzero;fill:rgb(93.333334%,93.333334%,93.333334%);fill-opacity:1;" d="M 20.09375 16.804688 C 20.21875 16.734375 20.316406 16.609375 20.355469 16.457031 C 20.367188 16.421875 20.371094 16.382812 20.375 16.34375 C 20.550781 15.589844 20.449219 14.769531 20.03125 14.046875 C 19.617188 13.324219 18.953125 12.828125 18.214844 12.601562 C 18.179688 12.585938 18.144531 12.570312 18.105469 12.558594 C 17.800781 12.480469 17.492188 12.65625 17.410156 12.960938 C 17.328125 13.265625 17.507812 13.578125 17.8125 13.660156 C 17.847656 13.667969 17.886719 13.675781 17.921875 13.675781 C 18.382812 13.828125 18.792969 14.144531 19.058594 14.609375 C 19.328125 15.070312 19.398438 15.582031 19.296875 16.058594 C 19.28125 16.09375 19.269531 16.128906 19.257812 16.164062 C 19.175781 16.46875 19.359375 16.78125 19.660156 16.863281 C 19.8125 16.902344 19.964844 16.878906 20.09375 16.804688 Z M 20.09375 16.804688 "/>
<path style=" stroke:none;fill-rule:nonzero;fill:rgb(93.333334%,93.333334%,93.333334%);fill-opacity:1;" d="M 10.890625 4 C 10.890625 4 4.933594 4 3.445312 4.390625 C 2.644531 4.609375 1.988281 5.269531 1.765625 6.082031 C 1.375 7.574219 1.375 10.660156 1.375 10.660156 C 1.375 10.660156 1.375 13.765625 1.765625 15.238281 C 1.988281 16.050781 2.628906 16.695312 3.445312 16.914062 C 4.949219 17.320312 10.890625 17.320312 10.890625 17.320312 C 10.890625 17.320312 12.363281 17.320312 14.03125 17.273438 C 13.785156 16.78125 13.644531 16.226562 13.644531 15.636719 C 13.644531 13.621094 15.265625 11.996094 17.28125 11.996094 C 18.523438 11.996094 19.617188 12.613281 20.273438 13.558594 C 20.402344 12.15625 20.402344 10.675781 20.402344 10.675781 C 20.402344 10.675781 20.417969 7.574219 20.011719 6.082031 C 19.792969 5.269531 19.148438 4.625 18.332031 4.40625 C 16.84375 4 10.890625 4 10.890625 4 Z M 9.070312 7.175781 C 9.078125 7.175781 9.085938 7.175781 9.09375 7.175781 C 9.171875 7.179688 9.246094 7.199219 9.3125 7.238281 L 14.378906 10.234375 C 14.679688 10.410156 14.679688 10.847656 14.378906 11.023438 L 9.3125 14.015625 C 9.007812 14.199219 8.621094 13.976562 8.621094 13.621094 L 8.621094 7.636719 C 8.621094 7.382812 8.824219 7.179688 9.070312 7.175781 Z M 9.070312 7.175781 "/>
</g>
</svg>

<svg xmlns="http://www.w3.org/2000/svg" width="22" height="22"><g fill="#bdbdbd"><path d="M14.473 14.465a.573.573 0 0 0-.266.348c-.012.035-.016.074-.02.113a3.167 3.167 0 0 0 2.165 3.742c.03.02.07.031.105.043a.57.57 0 0 0 .7-.402.567.567 0 0 0-.516-.715 2.041 2.041 0 0 1-1.137-.934 2.058 2.058 0 0 1-.238-1.45.566.566 0 0 0-.363-.8.545.545 0 0 0-.43.055zm0 0M20.094 16.805a.567.567 0 0 0 .261-.348.363.363 0 0 0 .02-.113 3.148 3.148 0 0 0-.344-2.297 3.142 3.142 0 0 0-1.816-1.445.566.566 0 0 0-.805.36.564.564 0 0 0 .402.694c.036.012.075.02.11.02.46.152.871.472 1.137.933.27.461.34.977.238 1.45-.016.035-.027.07-.04.105a.564.564 0 0 0 .403.695c.152.043.305.02.434-.054zm0 0"/><path d="M10.89 4s-5.956 0-7.445.39a2.44 2.44 0 0 0-1.68 1.696c-.39 1.488-.39 4.574-.39 4.574s0 3.106.39 4.578a2.392 2.392 0 0 0 1.68 1.676c1.504.406 7.446.406 7.446.406s1.472 0 3.14-.047a3.647 3.647 0 0 1-.386-1.636 3.631 3.631 0 0 1 3.636-3.64c1.242 0 2.336.616 2.992 1.562.13-1.407.13-2.883.13-2.883s.015-3.102-.391-4.59a2.384 2.384 0 0 0-1.68-1.68C16.844 4 10.891 4 10.891 4zM9.07 7.176h.028a.476.476 0 0 1 .214.066l5.067 2.992c.3.176.3.614 0 .79l-5.066 2.992a.457.457 0 0 1-.692-.395V7.637a.46.46 0 0 1 .45-.461zm0 0"/></g></svg>
